X: 1147
T: Mudgee Waltz
B: australian traditional tunes wiki
B: kameruka bush dance
B: ralph
M:3/4
L:1/8
R: Waltz
Q: 1/4=100
K:G
V:1 
"G"B3cd2|G3AB2|"C"c4e2|"Am"A4d2|"D"f3ed2|"D7"d2e2c2|"G"B4c2|"D"d4c2|
"G"B3cd2|G3AB2|"C"c4e2|"Am"A4d2|"D"f3ed2|"D"c2B2A2|"G"G6|G4-G d||
"G"b3ag2|B3dg2|"D"f3ef2|"Am"A4d2|"D"f3ed2|"Am"c2B2A2|"G"B4e2|"D"d6|
"G"b3ag2|B3dg2|"D"f3ef2|"Am"A4d2|"D"f3ed2|"D7"c2B2A2|"G"G6|G6||
% abcbook-tune_id 6342d53a461004f9ea477bdb


% abcbook-boost 0
% abcbook-tablature 
% abcbook-transpose -5
% abcbook-lastupdated 1665486584505
% abcbook-soundfonts 
% abcbook-repeats 3
%%MIDI transpose          -5
% NFF Book 2018

